emulator/images/iconHdd.svg

<svg xmlns="http://www.w3.org/2000/svg" width="24" height="24"><path style="font-variant-east_asian:normal;opacity:1;vector-effect:none;fill:#c8c8c8;fill-opacity:1;stroke:#c8c8c8;stroke-width:1.88976383;stroke-linecap:butt;stroke-linejoin:miter;stroke-miterlimit:4;stroke-dasharray:none;stroke-dashoffset:0;stroke-opacity:1" d="M6 2a2 2 0 0 0-2 2v16a2 2 0 0 0 2 2h12a2 2 0 0 0 2-2V4a2 2 0 0 0-2-2H6zm11.836 6.633A6 6 0 0 1 18 10c0 .482-.057.95-.164 1.398V8.633zM6.016 19.172h1.97A1 1 0 0 1 7 20a1 1 0 0 1-.984-.828zm8.404 0h.865l-.705.408-.16-.408z"/><path d="M6 2h12a2 2 0 0 1 2 2v16a2 2 0 0 1-2 2H6a2 2 0 0 1-2-2V4a2 2 0 0 1 2-2m6 2a6 6 0 0 0-6 6c0 3.31 2.69 6 6.1 6l-.88-2.23a1.01 1.01 0 0 1 .37-1.37l.86-.5a1.01 1.01 0 0 1 1.37.37l1.92 2.42A5.977 5.977 0 0 0 18 10a6 6 0 0 0-6-6m0 5a1 1 0 0 1 1 1 1 1 0 0 1-1 1 1 1 0 0 1-1-1 1 1 0 0 1 1-1m-5 9a1 1 0 0 0-1 1 1 1 0 0 0 1 1 1 1 0 0 0 1-1 1 1 0 0 0-1-1m5.09-4.73 2.49 6.31 2.59-1.5-4.22-5.31-.86.5z"/></svg>

<?xml version="1.0" encoding="UTF-8" standalone="no"?>
<svg
   xmlns:dc="http://purl.org/dc/elements/1.1/"
   xmlns:cc="http://creativecommons.org/ns#"
   xmlns:rdf="http://www.w3.org/1999/02/22-rdf-syntax-ns#"
   xmlns:svg="http://www.w3.org/2000/svg"
   xmlns="http://www.w3.org/2000/svg"
   xmlns:sodipodi="http://sodipodi.sourceforge.net/DTD/sodipodi-0.dtd"
   xmlns:inkscape="http://www.inkscape.org/namespaces/inkscape"
   version="1.1"
   width="24"
   height="24"
   viewBox="0 0 24 24"
   id="svg2823"
   sodipodi:docname="iconHdd.svg"
   inkscape:version="0.92.4 (5da689c313, 2019-01-14)">
  <metadata
     id="metadata2829">
    <rdf:RDF>
      <cc:Work
         rdf:about="">
        <dc:format>image/svg+xml</dc:format>
        <dc:type
           rdf:resource="http://purl.org/dc/dcmitype/StillImage" />
      </cc:Work>
    </rdf:RDF>
  </metadata>
  <defs
     id="defs2827" />
  <sodipodi:namedview
     pagecolor="#ffffff"
     bordercolor="#666666"
     borderopacity="1"
     objecttolerance="10"
     gridtolerance="10"
     guidetolerance="10"
     inkscape:pageopacity="0"
     inkscape:pageshadow="2"
     inkscape:window-width="1842"
     inkscape:window-height="1051"
     id="namedview2825"
     showgrid="false"
     inkscape:zoom="36.666667"
     inkscape:cx="12.327273"
     inkscape:cy="12"
     inkscape:window-x="-9"
     inkscape:window-y="-9"
     inkscape:window-maximized="1"
     inkscape:current-layer="svg2823" />
  <path
     style="font-variant-east_asian:normal;opacity:1;vector-effect:none;fill:#c8c8c8;fill-opacity:1;stroke:#c8c8c8;stroke-width:1.88976383;stroke-linecap:butt;stroke-linejoin:miter;stroke-miterlimit:4;stroke-dasharray:none;stroke-dashoffset:0;stroke-opacity:1"
     d="M 6 2 A 2 2 0 0 0 4 4 L 4 20 A 2 2 0 0 0 6 22 L 18 22 A 2 2 0 0 0 20 20 L 20 4 A 2 2 0 0 0 18 2 L 6 2 z M 17.835938 8.6328125 A 6 6 0 0 1 18 10 C 18 10.482137 17.943059 10.949554 17.835938 11.398438 L 17.835938 8.6328125 z M 6.015625 19.171875 L 7.9863281 19.171875 A 1 1 0 0 1 7 20 A 1 1 0 0 1 6.015625 19.171875 z M 14.419922 19.171875 L 15.285156 19.171875 L 14.580078 19.580078 L 14.419922 19.171875 z "
     id="path3384" />
  <path
     d="M6,2H18A2,2 0 0,1 20,4V20A2,2 0 0,1 18,22H6A2,2 0 0,1 4,20V4A2,2 0 0,1 6,2M12,4A6,6 0 0,0 6,10C6,13.31 8.69,16 12.1,16L11.22,13.77C10.95,13.29 11.11,12.68 11.59,12.4L12.45,11.9C12.93,11.63 13.54,11.79 13.82,12.27L15.74,14.69C17.12,13.59 18,11.9 18,10A6,6 0 0,0 12,4M12,9A1,1 0 0,1 13,10A1,1 0 0,1 12,11A1,1 0 0,1 11,10A1,1 0 0,1 12,9M7,18A1,1 0 0,0 6,19A1,1 0 0,0 7,20A1,1 0 0,0 8,19A1,1 0 0,0 7,18M12.09,13.27L14.58,19.58L17.17,18.08L12.95,12.77L12.09,13.27Z"
     id="path2821" />
</svg>
